X: 85
T: Ge qingcai
%%abc-version 2.0
%%abcx-abcm2ps-target-version 5.9.1 (29 Sep 2008)
%%abc-creator hum2abc beta
%%abcx-conversion-date 2013/10/02 07:52:29
%%abc-edited-by Helmut Schaffrath
%%humdrum-veritas 4021185065
%%humdrum-veritas-data 887862087
%%continueall 1
%%barnumbers 0
L: 1/16
M: 2/4
K: G
d2 e dA4 [I:setbarnb 1]| 
d2 e dA4 | 
G4d3 e | 
B d A EG4 | 
G2 G E d2 B d | 
G2 E D B d B A | 
G G G E d2 A B | 
A B A ED4 | 
B2 e2 B e B A | 
G G G E d2 A B | 
A B A ED4 |]  



